!!!CDT:
!!!PTL: Le Musiche del Cavalier Sigismondo D'India a una et due voci da cantarsi nel chitarrone, clavicembalo, arpa doppia et altri stromenti da corpo
!!!PPP: Venice
!!!PPR: Alessandro Vincenzi
!!!PDT: 1621
!!!RISM: I 33
!!!rime:
!!!AGN: Madrigal
!!!SCT: Tsg12068b
!!!SCA: Tsg12068b
!!!voices:
!!!COM: D'India, Sigismondo
!!!OTL: Non morì già: ché sue virtuti accolse
**kern	**fb	**kern	**text
*part2	*part2	*part1	*part1
*staff2	*staff2	*staff1	*staff1
*I"Basso continuo	*	*I"Canto	*
*I'Bc	*	*I'C	*
*oclefF4	*	*oclefC1	*
*clefF4	*	*clefG2	*
*k[b-]	*	*k[b-]	*
*F:	*	*F:	*
*omet(C)	*	*omet(C)	*
*M4/4	*	*M4/4	*
=1	=	=	=
!	!	!LO:TX:a:t=Terza parte.	!
1C	.	4r	.
.	.	4.ee-X	Non
.	.	8bnX	mo-
.	.	4cc	-rì
=2	=2	=2	=2
[1C	.	2cc	già:
.	.	8r	.
.	.	8cc	ché
.	.	8b-i	sue
.	.	8b-y	vir-
=3	=3	=3	=3
2C]	.	4.b-y	-tu-
.	.	8a	-di ac-
2G	11	2g	-col-
=4	=4	=4	=4
1GG	11:10	4g	-se
.	.	2g	Tut-
.	.	8e	-te in
.	.	8d	quel
=5	=5	=5	=5
[1D	.	2.f	pun-
.	.	4g	-to, e in
=6	=6	=6	=6
2D]	.	4g	guar-
.	.	4f	-dia al
2GG	.	2b-y	cor
=7	=7	=7	=7
1AA	#:11:#	4r	.
.	.	4e	le
.	.	2e	mi-
=8	=8	=8	=8
2D	.	2d	-se;
2AA	b	4r	.
.	.	8cc	E,
.	.	8cc	pre-
=9	=9	=9	=9
1D	#:11	2.cc	-men-
.	.	8b-y	-do il
.	.	8a	suo af-
=10	=10	=10	=10
2D	.	8f	-fan-
.	.	8g	-no, a
.	.	8g	dar
.	.	8f	si
2F	.	8a	vol-
.	.	8a	-se
.	.	[4dd	Vi-
=11	=11	=11	=11
2E-X	7:6	4dd]	.
.	.	8f#X	-ta
.	.	8e	con
2D	#	[2f#X	l'ac-
=12	=12	=12	=12
1C	.	8f#]	.
.	.	8e	-qua a
.	.	8e	chi
.	.	8e	col
.	.	2a	fer-
=13	=13	=13	=13
1D	#:11:#	4f#X	-ro uc-
.	.	2g	-ci-
.	.	(<4f#X	-se.
=14	=14	=14	=14
1GG	.	1g)	.
=15	=15	=15	=15
1GG	.	2.g	Men-
.	.	8g	-tr'e-
.	.	8g	-gli il
=16	=16	=16	=16
1GG	.	2g	suon
.	.	8r	.
.	.	8g	de'
.	.	8g	sa-
.	.	8g	-cri
=17	=17	=17	=17
4GG	.	4.g	det-
4D	.	.	.
.	.	8d	-ti
2D	.	8dL	sciol-
.	.	8eJ	.
.	.	8fL	.
.	.	8gJ	.
=18	=18	=18	=18
1D	.	8aL	.
.	.	8b-yJ	.
.	.	2cc	.
.	.	(>4bnX	-se,
=19	=19	=19	=19
4C	.	4cc)	.
4F	.	8r	.
.	.	8f	Co-
4E	.	8g	-lei
.	.	8a	di
4D	.	8b-i	gio-
.	.	8g	-ia
=20	=20	=20	=20
4D	.	8a	tra-
.	.	8b-y	-smu-
4C	.	2cc	-tos-
[2D	#:11	.	.
.	.	4b-y	-si, e
=21	=21	=21	=21
2D]	11:#	2a	ri-
2GG	.	2g	-se;
=22	=22	=22	=22
1GG	.	4r	.
.	.	4b-y	E in
.	.	[2b-y	at-
=23	=23	=23	=23
[1AA	11:#	4b-]	.
.	.	4e	-to
.	.	4e	di
.	.	4e	mo-
=24	=24	=24	=24
2AA]	.	8e	-rir
.	.	8g	lie-
.	.	8f#X	-to e
.	.	8e	vi-
[2D	.	2f#X	-va-
=25	=25	=25	=25
2D]	.	4f#i	-ce
.	.	8e	Dir
.	.	8f#i	pa-
2E	.	4g	-rea:
.	.	[4cc	s'a-
=26	=26	=26	=26
2F#X	.	4cc]	.
.	.	4a	-pre il
2G	.	4bnX	Ciel,
.	.	8r	.
.	.	8dd	io
=27	=27	=27	=27
4G	.	[1dd	va-
8FnXiL	.	.	.
8EJ	.	.	.
4D	.	.	.
4E	.	.	.
=28	=28	=28	=28
4F#X	.	4.dd]	.
4BBnX	.	.	.
.	.	8g	-do in
2D	11:#	2g	pa-
=29	=29	=29	=29
1GGl	.	1gl	-ce.
==	==	==	==
*-	*-	*-	*-
!!!system-decoration: [*]
!!!RDF**kern: > = above
!!!RDF**kern: < = below
!!!RDF**kern: i = editorial accidental
!!!RDF**kern: l = terminal long
!!!ENC: Emiliano Ricciardi
!!!END:
!!!EED: Ricciardi, Emiliano
!!!EEV: 2020/01/19
!!!YEC: Copyright 2018 Emiliano Ricciardi, All Rights Reserved
!!!ONB: Translated from MusicXML on 2020/01/19
!!@@BEGIN:	VERSEDATA
!!@CATALOGNUM:	Tsg12068
!!@LAST_MODIFIED: 2020/07/18
!!@TITLE:		Non morì già: ché sue virtuti accolse
!!@CANTO:		XII
!!@OTTAVA:	68
!!@MANUSRC:	G-Al, G-Am, G-Au, G-Br<sub>1</sub>, G-Br<sub>2</sub>, G-Cv, G-Es<sub>1</sub>, G-Es<sub>2</sub>, G-Es<sub>3</sub>, G-F, G-Fr, G-Fr<sub>1</sub>, G-Fr<sub>2</sub>, G-Mc, G-Mg, G-Mc<sub>1</sub>, G-Mr, G-Mt, G-N, G-Ol
!!@PRINTSRC:	G-1580CM, G-1581B, G-1581CV, G-1581R, G-1581MR, G-1581P, G-1581V, G-1581V<sub>bis</sub>, G-1582C, G-1582M, G-1582MC, G-1582P, G-1582SC, G-1582SC<sub>bis</sub>, G-1583S, G-1584O, G-1584S, G-1585C, G-1585S, G-1588S, G-1589S, G-1590B, G-1590S, G-1592S, G-1593S, G-1594C, G-1595C, G-1597C, G-1598C, G-1599C, G-1600C, G-1600S, G-1601C, G-1601R, G-1602C, G-1604C, G-1604Cl, G-1604F, G-1604P, G-1606B, G-1606B<sub>bis</sub>, G-1606L, G-1607ZR, G-1608DP, G-1609GC, G-1610M, G-1611S, G-1611V, G-1612P, G-1613M, G-1613P, G-1613V, G-1615P, G-1616M, G-1617P, G-1619B, G-1619V, G-1620M, G-1620S, G-1621R, G-1624I, G-1624MT, G-1625C, G-1625S, G-1625SS, G-1626C, G-1626Co, G-1627M, G-1628T, G-1628Tu, G-1630L, G-1630T, G-1632FT, G-1639CF, G-1642M, G-1643I, G-1644P, G-1644S
!!@@BEGIN:	VERSES
!!@ABOUTIT:
!!@ABOUTEN:
!!@EDITOR:	Angelo Solerti
!!@EDITION_TITLE: Gerusalemme liberata. Poema eroico di Torquato Tasso. Edizione critica sui manoscritti e le prime stampe.
!!@EDITION_LOC:	Florence
!!@EDITION_PUB:	G. Barbera
!!@EDITION_DATE:  1895
!!@EDITION_VOL:
!!@EDITION_PAGE:
!!@TRANSLATOR:	Emiliano Ricciardi and Amyrose McCue Gill
!!@VERSE:
!!	Non morì già: ché sue virtuti accolse
!!	Tutte in quel punto, e in guardia al cor le mise:
!!	E, premendo il suo affanno, a dar si volse
!!	Vita con l’acqua a chi col ferro uccise.
!!	Mentre egli il suon de’ sacri detti sciolse,
!!	Colei di gioia trasmutossi, e rise:
!!	E in atto di morir lieto e vivace
!!	Dir parea: s’apre il Cielo: io vado in pace.
!!@MVERSE_DATE: 20230824
!!@MVERSE:
!!	Non mo|rì|| già: ché sue vir|tu||ti_ac|col||se			=a*
!!	Tut||te_in quel pun||to,_e_in guar||dia_al cor le mi||se:	=b
!!	E, pre|men||do_il suo_af|fan||no,_a dar si vol||se		=a*
!!	Vi||ta con l’ac||qua_a chi col fer||ro_uc|ci||se.		=b
!!	Men||tre_e||gli_il suon de’ sa||cri det||ti sciol||se,		=a	
!!	Co|lei|| di gio||ia tras|mu|tos||si,_e ri||se:			=b
!!	E_in at||to di mor|ir|| lie||to_e vi|va||ce			=c
!!	Dir pa|rea||: s’a|pre_il Cie||lo:_io va||do_in pa||ce.		=c
!!@TVERSE:
!!	She did not die yet; thus his virtue he gathered
!!	All together at that moment, and set it to guard his heart:
!!	And, repressing his grief, he turned to give
!!	Life with water to she whom he with iron killed.
!!	While he the sound of sacred words released,
!!	She was transformed by joy, and smiled:
!!	And, in the act of dying, happy and lively
!!	She seemed to say: Heaven opens: I go in peace.
!!@@END:		VERSES
!!@OTHER_CRIT_ED:  Torquato Tasso, <i>Gerusalemme liberata</i>, ed. Lanfranco Caretti, 2 vols. (Bari: Laterza, 1967).
!!@ATTRIBUTION_ABOUT:
!!@DATING:	mid-1560s through 1570s
!!@DEDICATEE:	Duke Alfonso II d'Este
!!@COMMENTARY:
!!@@END:		VERSEDATA
!!@@BEGIN: SETTING
!!@CATALOGNUM:	Tsg12068b
!!@CANTO:		XII
!!@OTTAVA:	68
!!@TITLE:	Non morì già: ché sue virtuti accolse
!!@SETTINGTITLE: Non morì già: ché sue virtudi accolse
!!@COMPOSER:	D'India, Sigismondo
!!@PARTS:		3 of 3
!!@PRINCEPSTITLE:	Le Musiche del Cavalier Sigismondo D'India a una et due voci da cantarsi nel chitarrone, clavicembalo, arpa doppia et altri stromenti da corpo
!!@PRINCEPSLOC:	Venice
!!@NORMLOC:	Venice
!!@NORMPUB:	Alessandro Vincenzi
!!@NORMPUBSHORT:	A. Vincenzi
!!@PRINCEPSPUB:	Alessandro Vincenti
!!@PRINCEPSYEAR:	1621
!!@PRINCEPSRISM:	I 33
!!@OVOICES:	1+bc
!!@EXTANTVOICES:	1+bc
!!@OMENSURATION:	C
!!@OCLEFS:	C1,F4
!!@OTIME:		
!!@OKEYSIG:	b-
!!@FINAL:		G
!!@TIMPEDITOR:	Ricciardi, Emiliano
!!@REPRINTS:	
!!@@END: SETTING
